resources/svg/envelope-open-o.svg

<svg xmlns="http://www.w3.org/2000/svg" viewBox="0 0 15 15" fill="none"><path d="M0.5 5L7.5 8.5L14.5 5M14.5 5.08032V13.5C14.5 14.0523 14.0523 14.5 13.5 14.5H1.5C0.947716 14.5 0.5 14.0523 0.5 13.5V5.08032C0.5 4.72146 0.692286 4.39012 1.00386 4.21208L7.00386 0.783505C7.31129 0.60783 7.68871 0.60783 7.99614 0.783506L13.9961 4.21208C14.3077 4.39012 14.5 4.72146 14.5 5.08032Z" stroke="black"/></svg>

<svg xmlns="http://www.w3.org/2000/svg" viewBox="0 0 15 15" fill="none"><path d="M.5 5l7 3.5 7-3.5m0 .08v8.42a1 1 0 01-1 1h-12a1 1 0 01-1-1V5.08a1 1 0 01.504-.868l6-3.428a1 1 0 01.992 0l6 3.428a1 1 0 01.504.868z" stroke="currentColor"/></svg>
